res/comp/solo-off.svg

<?xml version="1.0" encoding="UTF-8" standalone="no"?>
<!-- Generator: Adobe Illustrator 23.0.3, SVG Export Plug-In . SVG Version: 6.00 Build 0)  -->

<svg
   xmlns:dc="http://purl.org/dc/elements/1.1/"
   xmlns:cc="http://creativecommons.org/ns#"
   xmlns:rdf="http://www.w3.org/1999/02/22-rdf-syntax-ns#"
   xmlns:svg="http://www.w3.org/2000/svg"
   xmlns="http://www.w3.org/2000/svg"
   xmlns:sodipodi="http://sodipodi.sourceforge.net/DTD/sodipodi-0.dtd"
   xmlns:inkscape="http://www.inkscape.org/namespaces/inkscape"
   version="1.0"
   x="0px"
   y="0px"
   width="9.6499996mm"
   height="5mm"
   viewBox="0 0 36.47244 18.897638"
   enable-background="new 0 0 27.35433 14.17323"
   xml:space="preserve"
   id="svg48"
   sodipodi:docname="solo-off.svg"
   inkscape:version="0.92.2 5c3e80d, 2017-08-06"><metadata
     id="metadata54"><rdf:RDF><cc:Work
         rdf:about=""><dc:format>image/svg+xml</dc:format><dc:type
           rdf:resource="http://purl.org/dc/dcmitype/StillImage" /><dc:title></dc:title></cc:Work></rdf:RDF></metadata><defs
     id="defs52" /><sodipodi:namedview
     pagecolor="#ffffff"
     bordercolor="#666666"
     borderopacity="1"
     objecttolerance="10"
     gridtolerance="10"
     guidetolerance="10"
     inkscape:pageopacity="0"
     inkscape:pageshadow="2"
     inkscape:window-width="1034"
     inkscape:window-height="682"
     id="namedview50"
     showgrid="false"
     inkscape:document-units="mm"
     units="mm"
     inkscape:zoom="10.528498"
     inkscape:cx="13.677165"
     inkscape:cy="7.0866151"
     inkscape:window-x="0"
     inkscape:window-y="0"
     inkscape:window-maximized="0"
     inkscape:current-layer="svg48" /><g
     id="Layer_1"
     transform="translate(0,4.7244077)" /><g
     id="Mute_x2F_Solo"
     transform="matrix(1.3333328,0,0,1.3333328,0,8.1180171e-6)"><g
       id="g15"><g
         id="g9"><path
           d="m 1.32617,13.92188 c -0.59326,0 -1.07568,-0.48145 -1.07568,-1.07422 V 1.32617 c 0,-0.59326 0.48242,-1.07568 1.07568,-1.07568 h 24.70215 c 0.59277,0 1.0752,0.48242 1.0752,1.07568 v 11.52148 c 0,0.59277 -0.48242,1.07422 -1.0752,1.07422 H 1.32617 Z"
           id="path3"
           inkscape:connector-curvature="0"
           style="fill:#808080" /><g
           id="g7"><path
             d="m 26.02835,0.5013 c 0.45474,0 0.82469,0.36995 0.82469,0.82468 v 11.52126 c 0,0.45473 -0.36995,0.82468 -0.82469,0.82468 H 1.32599 c -0.45474,0 -0.82469,-0.36995 -0.82469,-0.82468 V 1.32598 c 0,-0.45473 0.36995,-0.82468 0.82469,-0.82468 h 24.70236 m 0,-0.5013 H 1.32599 C 0.5967,0 0,0.59669 0,1.32598 v 11.52126 c 0,0.72929 0.5967,1.32598 1.32599,1.32598 h 24.70236 c 0.72929,0 1.32599,-0.59669 1.32599,-1.32598 V 1.32598 C 27.35434,0.59669 26.75764,0 26.02835,0 Z"
             id="path5"
             inkscape:connector-curvature="0" /></g></g><g
         id="g13"><path
           d="m 11.42678,8.95581 0.85938,-0.52148 c 0.24316,0.71094 0.74658,1.06152 1.51074,1.06152 0.75537,0 1.12891,-0.33301 1.12891,-0.82812 0,-0.26074 -0.10449,-0.4502 -0.3042,-0.58496 C 14.4219,7.94801 14.05716,7.79468 13.54495,7.63257 12.96341,7.45288 12.67679,7.33569 12.26907,7.0564 11.87796,6.76831 11.67825,6.35425 11.67825,5.78687 c 0,-0.55762 0.19141,-0.99902 0.57324,-1.32324 0.38184,-0.33301 0.84229,-0.49512 1.38037,-0.49512 0.97266,0 1.72803,0.52246 2.11865,1.38672 L 14.90822,5.85914 C 14.65627,5.27418 14.23097,4.9773 13.63185,4.9773 c -0.58154,0 -0.95508,0.30566 -0.95508,0.7832 0,0.46777 0.29541,0.68359 1.22412,0.98047 0.23486,0.08105 0.39941,0.13574 0.50391,0.18066 0.11279,0.03613 0.26025,0.09863 0.45117,0.17969 0.19971,0.08105 0.34766,0.1709 0.44287,0.25195 0.32129,0.26172 0.66846,0.69336 0.625,1.29688 0,0.56738 -0.19971,1.02637 -0.59863,1.35938 -0.39111,0.33301 -0.91162,0.49512 -1.5542,0.49512 -1.17236,-10e-6 -2.02294,-0.58497 -2.34423,-1.54884 z"
           id="path11"
           inkscape:connector-curvature="0"
           style="fill:#ffffff" /></g></g><g
       id="g17" /><g
       id="g19" /><g
       id="g21" /><g
       id="g23" /><g
       id="g25" /><g
       id="g27" /><g
       id="g29" /><g
       id="g31" /><g
       id="g33" /><g
       id="g35" /><g
       id="g37" /><g
       id="g39" /><g
       id="g41" /><g
       id="g43" /><g
       id="g45" /></g></svg>

<?xml version="1.0" encoding="UTF-8" standalone="no"?>
<svg
   xmlns:dc="http://purl.org/dc/elements/1.1/"
   xmlns:cc="http://creativecommons.org/ns#"
   xmlns:rdf="http://www.w3.org/1999/02/22-rdf-syntax-ns#"
   xmlns:svg="http://www.w3.org/2000/svg"
   xmlns="http://www.w3.org/2000/svg"
   xmlns:sodipodi="http://sodipodi.sourceforge.net/DTD/sodipodi-0.dtd"
   xmlns:inkscape="http://www.inkscape.org/namespaces/inkscape"
   viewBox="0 0 36.472439 18.897638"
   version="1.1"
   id="svg17"
   sodipodi:docname="solo-darker.svg"
   width="9.6499996mm"
   height="5mm"
   inkscape:version="0.92.2 5c3e80d, 2017-08-06">
  <metadata
     id="metadata21">
    <rdf:RDF>
      <cc:Work
         rdf:about="">
        <dc:format>image/svg+xml</dc:format>
        <dc:type
           rdf:resource="http://purl.org/dc/dcmitype/StillImage" />
        <dc:title>polyAsset 1</dc:title>
      </cc:Work>
    </rdf:RDF>
  </metadata>
  <sodipodi:namedview
     pagecolor="#ffffff"
     bordercolor="#666666"
     borderopacity="1"
     objecttolerance="10"
     gridtolerance="10"
     guidetolerance="10"
     inkscape:pageopacity="0"
     inkscape:pageshadow="2"
     inkscape:window-width="1273"
     inkscape:window-height="825"
     id="namedview19"
     showgrid="false"
     inkscape:document-units="mm"
     units="mm"
     inkscape:zoom="10.530164"
     inkscape:cx="13.675"
     inkscape:cy="7.085"
     inkscape:window-x="0"
     inkscape:window-y="0"
     inkscape:window-maximized="0"
     inkscape:current-layer="svg17" />
  <defs
     id="defs4">
    <style
       id="style2">.cls-1{fill:#606060;}.cls-2{fill:#fff;}</style>
  </defs>
  <title
     id="title6">polyAsset 1</title>
  <g
     id="Layer_2"
     data-name="Layer 2"
     transform="matrix(1.3350087,0,0,1.333637,0,1.0350604e-6)">
    <g
       id="Layer_1-2"
       data-name="Layer 1">
      <g
         id="Mute_Solo"
         data-name="Mute/Solo">
        <path
           class="cls-1"
           d="M 1.33,13.92 A 1.07,1.07 0 0 1 0.25,12.85 V 1.33 A 1.08,1.08 0 0 1 1.33,0.25 H 26 a 1.07,1.07 0 0 1 1.1,1.08 V 12.85 A 1.07,1.07 0 0 1 26,13.92 Z"
           id="path8"
           inkscape:connector-curvature="0"
           style="fill:#606060" />
        <path
           d="m 26,0.5 a 0.83,0.83 0 0 1 0.82,0.83 V 12.85 A 0.82,0.82 0 0 1 26,13.67 H 1.33 A 0.83,0.83 0 0 1 0.5,12.85 V 1.33 A 0.83,0.83 0 0 1 1.33,0.5 H 26 M 26,0 H 1.33 A 1.34,1.34 0 0 0 0,1.33 v 11.52 a 1.33,1.33 0 0 0 1.33,1.32 H 26 a 1.32,1.32 0 0 0 1.32,-1.32 V 1.33 A 1.33,1.33 0 0 0 26,0 Z"
           id="path10"
           inkscape:connector-curvature="0" />
        <path
           class="cls-2"
           d="M 11.43,9 12.29,8.47 A 1.44,1.44 0 0 0 13.8,9.5 c 0.75,0 1.13,-0.34 1.13,-0.83 A 0.68,0.68 0 0 0 14.62,8.08 4.62,4.62 0 0 0 13.54,7.63 4,4 0 0 1 12.27,7.06 1.48,1.48 0 0 1 11.68,5.79 1.67,1.67 0 0 1 12.25,4.46 2,2 0 0 1 13.63,4 2.24,2.24 0 0 1 15.75,5.39 l -0.84,0.5 A 1.3,1.3 0 0 0 13.63,5 c -0.58,0 -1,0.3 -1,0.78 0,0.48 0.29,0.68 1.22,1 l 0.5,0.18 0.46,0.18 a 1.71,1.71 0 0 1 0.44,0.25 1.52,1.52 0 0 1 0.62,1.3 A 1.7,1.7 0 0 1 15.33,10 2.37,2.37 0 0 1 13.77,10.49 2.3,2.3 0 0 1 11.43,9 Z"
           id="path12"
           inkscape:connector-curvature="0"
           style="fill:#ffffff" />
      </g>
    </g>
  </g>
</svg>
